src/pages/Main/ui/Program/ScheduleItem/images/meet.svg

<svg fill="none" height="18" viewBox="0 0 23 18" width="23" xmlns="http://www.w3.org/2000/svg"><g fill="#fff"><path d="m3.01749 8.78085c-.06432 0-.12864-.02291-.17887-.06963l-2.7536116-2.85104c-.09075644-.08372-.1110224-.21857-.0502244-.3261l2.802876-4.9012c.07225-.126033.23262-.1701.3595-.098711l3.54135 2.940931 2.19225-.03966h.00528c.14363 0 .2617.11546.26434.26.00265.1463-.11366.26617-.25993.26881l-2.2645.04143c-.04759.00088-.09429-.01058-.13482-.03438l-3.37569-2.84751-2.567614 4.4905 2.599414 2.70826c.1075.09871.11367.26617.01498.37369-.05199.05641-.12336.08461-.19473.08461z"/><path d="m12.569 17.1713c-.3648 0-.7102-.1348-.9781-.3833l-1.3728-1.2665c-.1075-.0988-.1137-.2662-.015-.3737.0987-.1076.2661-.1137.3736-.015l1.3737 1.2674c.1789.1657.4106.252.6565.2423.2449-.0097.4714-.1137.6361-.2917l.0829-.0899c.341-.3693.3207-.9474-.045-1.2894l-1.0388-.9633c-.052-.0476-.082-.1146-.0846-.186-.0035-.1066.0573-.2071.1551-.2521.0969-.044.2105-.0282.289.0441l1.3014 1.2066c.1789.1657.4132.2529.6573.2423.245-.0096.4697-.1128.6336-.2899l.0889-.0934c.3375-.3667.3173-.9457-.0493-1.2877l-1.0397-.9616c-.074-.0678-.1022-.1718-.074-.2679.0255-.0881.096-.1586.1841-.1824.089-.0247.1833-.0036.2511.059l1.3023 1.2066c.3701.342.9508.319 1.2927-.0502l.0846-.0917c.3401-.3684.3189-.9466-.0459-1.2877l-1.0388-.9633c-.052-.0476-.082-.1146-.0846-.1859-.0035-.1067.0573-.2072.1542-.2521.0969-.0441.2106-.0282.289.0441l1.3014 1.2065c.1789.1657.4133.253.6574.2424.2449-.0097.4705-.1128.6353-.2917l.0881-.0926c.3374-.3666.3172-.9448-.0494-1.2876l-4.5008-4.15648c-.1075-.09872-.1137-.26617-.015-.3737.0987-.10752.267-.11369.3736-.01498l4.5017 4.15646c.5789.5412.6124 1.4542.0749 2.0368l-.0881.0925c-.2582.2794-.6141.4434-1.001.4584-.1683.0052-.3321-.0159-.4881-.0635.0291.3869-.0952.7835-.3771 1.0902l-.0846.0917c-.3904.4213-.9763.5561-1.4909.3966.0291.3869-.0952.7853-.378 1.0911l-.089.0934c-.2573.2785-.6133.4425-.9992.4575-.1683.0061-.3331-.0159-.489-.0644.0291.3869-.0961.7844-.378 1.0911l-.0837.0908c-.2617.282-.6186.446-1.0036.461-.0194 0-.0397.0008-.0591.0008z"/><path d="m5.08733 13.1762c-.04846 0-.09693-.0027-.14539-.0071-.37007-.0379-.7005-.2168-.93047-.5041l-.07578-.097c-.46612-.5869-.38241-1.4524.19297-1.968.00264-.0027.0141-.0115.01674-.0141l1.53229-1.26741c.30222-.2503.68111-.36576 1.0644-.3261.37008.03878.69962.21769.92783.50501l.07402.09166s0 .00089.00176.00177c.45995.58077.38417 1.43837-.17182 1.95307-.00353.0035-.01322.0115-.01674.015l-1.55167 1.2832c-.26346.2186-.58507.335-.91726.335zm1.50673-3.66293c-.20971 0-.41237.07403-.57978.2124l-1.53229 1.26743c-.36214.3243-.4203.8831-.13129 1.2471l.0749.096c.13834.1728.34188.283.56921.3059.24055.0246.48022-.0494.6723-.2089l1.55167-1.2833c.34893-.3225.40004-.8654.11191-1.23033l-.07402-.09166c-.1401-.17627-.34188-.28644-.57009-.30935-.03084-.00353-.06168-.00441-.0934-.00441z"/><path d="m6.8637 14.8225c-.04935 0-.09869-.0026-.14803-.0079-.3692-.0379-.69874-.2177-.92872-.5059l-.07401-.0917c-.46436-.5852-.38594-1.4463.17711-1.961.00352-.0026.0185-.0158.02203-.0185l1.54021-1.2735c.30223-.2504.68112-.3667 1.06441-.3261.37007.0379.69961.2176.92871.505l.07401.0925s0 0 .00089.0018c.45995.5808.38417 1.4383-.17183 1.953-.00528.0053-.01145.0106-.01762.015l-1.55167 1.2833c-.26346.2186-.58419.3349-.91637.3349zm1.50673-3.6629c-.20971 0-.41237.074-.57978.2124l-1.54022 1.2736c-.36126.3296-.41501.8743-.12336 1.2418l.07402.0917c.14098.1771.34276.2873.57009.3111.24143.0247.48021-.0494.6723-.2089l1.55167-1.2833c.34893-.3234.40092-.8654.1119-1.2303l-.07401-.0926c-.14098-.1762-.34276-.2864-.57009-.3102-.03084-.0035-.06168-.0044-.09252-.0044z"/><path d="m9.0938 16.0908c-.04846 0-.0978-.0026-.14627-.007-.37007-.0379-.7005-.2168-.92871-.505l-.07401-.0917c-.45995-.5773-.38682-1.4331.16653-1.9487l.66261-.5491c.30223-.2503.68023-.3666 1.06441-.3261.37004.0388.69964.2177.92784.5051l.074.0925v.0009c.4564.5737.3851 1.4269-.1612 1.9425l-.6697.5535c-.2617.2177-.58243.334-.91462.334zm.59653-2.9076c-.20971 0-.41237.0741-.57979.2124l-.65115.5394c-.341.3182-.39123.8585-.10221 1.2207l.07401.0926c.1401.1762.34276.2855.57009.3093.24143.0247.47934-.0493.67054-.208l.65728-.5429c.3349-.3173.3842-.8558.0979-1.2163l-.0741-.0925c-.1409-.1763-.3427-.2865-.56917-.3094-.03084-.0035-.06168-.0044-.09252-.0044z"/><path d="m3.76645 11.1534c-.04846 0-.09693-.0026-.14627-.0079-.36919-.0379-.69962-.2168-.92871-.5032l-.07666-.0979c-.45466-.57197-.38329-1.42512.16301-1.94071l.66966-.55349c.30046-.24942.67671-.36576 1.06088-.3261.36919.0379.69962.21681.92871.50325l.0749.09255v.00088c.4529.57023.38593 1.42074-.1542 1.93632-.0044.0044-.00881.0088-.0141.0123l-.66173.5483c-.26345.2185-.58507.3349-.91725.3349zm.59829-2.90842c-.20971 0-.41237.07403-.57979.21241l-.65732.54203c-.33483.31729-.38417.85667-.09781 1.21718l.07578.0969c.13834.1728.341.282.56745.305.23967.0246.48022-.0494.6723-.2089l.6538-.54205c.33835-.32874.38241-.86284.09957-1.21803l-.07402-.09254c-.14098-.17539-.34276-.28468-.57009-.30847-.03084-.00353-.0608-.00441-.09164-.00441z"/><path d="m18.1985 9.26827c-.0776 0-.1542-.03349-.2062-.09871-.0916-.1137-.0731-.28027.0405-.37193l3.6021-2.44091-2.2548-4.65619-3.6638 1.94647c-.0431.02027-.0907.02908-.1374.02467l-5.58727-.48562-2.97293 2.3964c-.3692.31023-.42471.89986-.11631 1.28413l.07754.09695c.31544.39308.89258.45742 1.28645.14189l2.21512-1.78826c.0538-.04319.1216-.06346.1886-.05729l4.1739.36312c.1454.01234.2529.14101.2406.28644-.0124.14542-.1428.25207-.2864.24061l-4.0682-.35343-2.1332 1.72217c-.30046.24149-.67759.3499-1.06176.30759-.38417-.0423-.7287-.23091-.96836-.53057l-.07754-.09695c-.49168-.61342-.40532-1.52122.19296-2.02271l3.05929-2.46602c.05287-.04319.12071-.06346.18856-.05729l5.62165.48827 3.8355-2.02843c.1313-.06257.289-.00793.3525.12339l2.461 5.08188c.0537.11105.0238.24414-.0723.3217l-3.7659 2.5731c-.0485.03966-.1075.05817-.1657.05817z"/></g></svg>

<svg width="23" height="18" viewBox="0 0 23 18" fill="none" xmlns="http://www.w3.org/2000/svg">
    <path d="M3.01749 8.78085C2.95317 8.78085 2.88885 8.75794 2.83862 8.71122L0.0850084 5.86018C-0.00574804 5.77646 -0.026014 5.64161 0.034784 5.53408L2.83766 0.63288C2.90991 0.506847 3.07028 0.46278 3.19716 0.534169L6.73851 3.4751L8.93076 3.43544C8.93076 3.43544 8.93428 3.43544 8.93604 3.43544C9.07967 3.43544 9.19774 3.5509 9.20038 3.69544C9.20303 3.84174 9.08672 3.96161 8.94045 3.96425L6.67595 4.00568C6.62836 4.00656 6.58166 3.9951 6.54113 3.9713L3.16544 1.12379L0.597826 5.61429L3.19724 8.32255C3.30474 8.42126 3.31091 8.58872 3.21222 8.69624C3.16023 8.75265 3.08886 8.78085 3.01749 8.78085Z" fill="white"/>
    <path d="M12.569 17.1713C12.2042 17.1713 11.8588 17.0365 11.5909 16.788L10.2181 15.5215C10.1106 15.4227 10.1044 15.2553 10.2031 15.1478C10.3018 15.0402 10.4692 15.0341 10.5767 15.1328L11.9504 16.4002C12.1293 16.5659 12.361 16.6522 12.6069 16.6425C12.8518 16.6328 13.0783 16.5288 13.243 16.3508L13.3259 16.2609C13.6669 15.8916 13.6466 15.3135 13.2809 14.9715L12.2421 14.0082C12.1901 13.9606 12.1601 13.8936 12.1575 13.8222C12.154 13.7156 12.2148 13.6151 12.3126 13.5701C12.4095 13.5261 12.5231 13.5419 12.6016 13.6142L13.903 14.8208C14.0819 14.9865 14.3162 15.0737 14.5603 15.0631C14.8053 15.0535 15.03 14.9503 15.1939 14.7732L15.2828 14.6798C15.6203 14.3131 15.6001 13.7341 15.2335 13.3921L14.1938 12.4305C14.1198 12.3627 14.0916 12.2587 14.1198 12.1626C14.1453 12.0745 14.2158 12.004 14.3039 11.9802C14.3929 11.9555 14.4872 11.9766 14.555 12.0392L15.8573 13.2458C16.2274 13.5878 16.8081 13.5648 17.15 13.1956L17.2346 13.1039C17.5747 12.7355 17.5535 12.1573 17.1887 11.8162L16.1499 10.8529C16.0979 10.8053 16.0679 10.7383 16.0653 10.667C16.0618 10.5603 16.1226 10.4598 16.2195 10.4149C16.3164 10.3708 16.4301 10.3867 16.5085 10.459L17.8099 11.6655C17.9888 11.8312 18.2232 11.9185 18.4673 11.9079C18.7122 11.8982 18.9378 11.7951 19.1026 11.6162L19.1907 11.5236C19.5281 11.157 19.5079 10.5788 19.1413 10.236L14.6405 6.07952C14.533 5.9808 14.5268 5.81335 14.6255 5.70582C14.7242 5.5983 14.8925 5.59213 14.9991 5.69084L19.5008 9.8473C20.0797 10.3885 20.1132 11.3015 19.5757 11.8841L19.4876 11.9766C19.2294 12.256 18.8735 12.42 18.4866 12.435C18.3183 12.4402 18.1545 12.4191 17.9985 12.3715C18.0276 12.7584 17.9033 13.155 17.6214 13.4617L17.5368 13.5534C17.1464 13.9747 16.5605 14.1095 16.0459 13.95C16.075 14.3369 15.9507 14.7353 15.6679 15.0411L15.5789 15.1345C15.3216 15.413 14.9656 15.577 14.5797 15.592C14.4114 15.5981 14.2466 15.5761 14.0907 15.5276C14.1198 15.9145 13.9946 16.312 13.7127 16.6187L13.629 16.7095C13.3673 16.9915 13.0104 17.1555 12.6254 17.1705C12.606 17.1705 12.5857 17.1713 12.5663 17.1713H12.569Z" fill="white"/>
    <path d="M5.08733 13.1762C5.03887 13.1762 4.9904 13.1735 4.94194 13.1691C4.57187 13.1312 4.24144 12.9523 4.01147 12.665L3.93569 12.568C3.46957 11.9811 3.55328 11.1156 4.12866 10.6C4.1313 10.5973 4.14276 10.5885 4.1454 10.5859L5.67769 9.31849C5.97991 9.06819 6.3588 8.95273 6.74209 8.99239C7.11217 9.03117 7.44171 9.21008 7.66992 9.4974L7.74394 9.58906C7.74394 9.58906 7.74394 9.58995 7.7457 9.59083C8.20565 10.1716 8.12987 11.0292 7.57388 11.5439C7.57035 11.5474 7.56066 11.5554 7.55714 11.5589L6.00547 12.8421C5.74201 13.0607 5.4204 13.1771 5.08821 13.1771L5.08733 13.1762ZM6.59406 9.51327C6.38435 9.51327 6.18169 9.5873 6.01428 9.72567L4.48199 10.9931C4.11985 11.3174 4.06169 11.8762 4.3507 12.2402L4.4256 12.3362C4.56394 12.509 4.76748 12.6192 4.99481 12.6421C5.23536 12.6667 5.47503 12.5927 5.66711 12.4332L7.21878 11.1499C7.56771 10.8274 7.61882 10.2845 7.33069 9.91957L7.25667 9.82791C7.11657 9.65164 6.91479 9.54147 6.68658 9.51856C6.65574 9.51503 6.6249 9.51415 6.59318 9.51415L6.59406 9.51327Z" fill="white"/>
    <path d="M6.8637 14.8225C6.81435 14.8225 6.76501 14.8199 6.71567 14.8146C6.34647 14.7767 6.01693 14.5969 5.78695 14.3087L5.71294 14.217C5.24858 13.6318 5.327 12.7707 5.89005 12.256C5.89357 12.2534 5.90855 12.2402 5.91208 12.2375L7.45229 10.964C7.75452 10.7136 8.13341 10.5973 8.5167 10.6379C8.88677 10.6758 9.21631 10.8555 9.44541 11.1429L9.51942 11.2354C9.51942 11.2354 9.51942 11.2354 9.52031 11.2372C9.98026 11.818 9.90448 12.6755 9.34848 13.1902C9.3432 13.1955 9.33703 13.2008 9.33086 13.2052L7.77919 14.4885C7.51573 14.7071 7.195 14.8234 6.86282 14.8234L6.8637 14.8225ZM8.37043 11.1596C8.16072 11.1596 7.95806 11.2336 7.79065 11.372L6.25043 12.6456C5.88917 12.9752 5.83542 13.5199 6.12707 13.8874L6.20109 13.9791C6.34207 14.1562 6.54385 14.2664 6.77118 14.2902C7.01261 14.3149 7.25139 14.2408 7.44348 14.0813L8.99515 12.798C9.34408 12.4746 9.39607 11.9326 9.10705 11.5677L9.03304 11.4751C8.89206 11.2989 8.69028 11.1887 8.46295 11.1649C8.43211 11.1614 8.40127 11.1605 8.37043 11.1605V11.1596Z" fill="white"/>
    <path d="M9.0938 16.0908C9.04534 16.0908 8.996 16.0882 8.94753 16.0838C8.57746 16.0459 8.24703 15.867 8.01882 15.5788L7.94481 15.4871C7.48486 14.9098 7.55799 14.054 8.11134 13.5384L8.77395 12.9893C9.07618 12.739 9.45418 12.6227 9.83836 12.6632C10.2084 12.702 10.538 12.8809 10.7662 13.1683L10.8402 13.2608C10.8402 13.2608 10.8402 13.2608 10.8402 13.2617C11.2966 13.8354 11.2253 14.6886 10.679 15.2042L10.0093 15.7577C9.7476 15.9754 9.42687 16.0917 9.09468 16.0917L9.0938 16.0908ZM9.69033 13.1832C9.48062 13.1832 9.27796 13.2573 9.11054 13.3956L8.45939 13.935C8.11839 14.2532 8.06816 14.7935 8.35718 15.1557L8.43119 15.2483C8.57129 15.4245 8.77395 15.5338 9.00128 15.5576C9.24271 15.5823 9.48062 15.5083 9.67182 15.3496L10.3291 14.8067C10.664 14.4894 10.7133 13.9509 10.427 13.5904L10.3529 13.4979C10.212 13.3216 10.0102 13.2114 9.78373 13.1885C9.75289 13.185 9.72205 13.1841 9.69121 13.1841L9.69033 13.1832Z" fill="white"/>
    <path d="M3.76645 11.1534C3.71799 11.1534 3.66952 11.1508 3.62018 11.1455C3.25099 11.1076 2.92056 10.9287 2.69147 10.6423L2.61481 10.5444C2.16015 9.97243 2.23152 9.11928 2.77782 8.60369L3.44748 8.0502C3.74794 7.80078 4.12419 7.68444 4.50836 7.7241C4.87755 7.762 5.20798 7.94091 5.43707 8.22735L5.51197 8.3199C5.51197 8.3199 5.51197 8.3199 5.51197 8.32078C5.96487 8.89101 5.8979 9.74152 5.35777 10.2571C5.35337 10.2615 5.34896 10.2659 5.34367 10.2694L4.68194 10.8177C4.41849 11.0362 4.09687 11.1526 3.76469 11.1526L3.76645 11.1534ZM4.36474 8.24498C4.15503 8.24498 3.95237 8.31901 3.78495 8.45739L3.12763 8.99942C2.7928 9.31671 2.74346 9.85609 3.02982 10.2166L3.1056 10.3135C3.24394 10.4863 3.4466 10.5955 3.67305 10.6185C3.91272 10.6431 4.15327 10.5691 4.34535 10.4096L4.99915 9.86755C5.3375 9.53881 5.38156 9.00471 5.09872 8.64952L5.0247 8.55698C4.88372 8.38159 4.68194 8.2723 4.45461 8.24851C4.42377 8.24498 4.39381 8.2441 4.36297 8.2441L4.36474 8.24498Z" fill="white"/>
    <path d="M18.1985 9.26827C18.1209 9.26827 18.0443 9.23478 17.9923 9.16956C17.9007 9.05586 17.9192 8.88929 18.0328 8.79763L21.6349 6.35672L19.3801 1.70053L15.7163 3.647C15.6732 3.66727 15.6256 3.67608 15.5789 3.67167L9.99163 3.18605L7.0187 5.58245C6.6495 5.89268 6.59399 6.48231 6.90239 6.86658L6.97993 6.96353C7.29537 7.35661 7.87251 7.42095 8.26638 7.10542L10.4815 5.31716C10.5353 5.27397 10.6031 5.2537 10.6701 5.25987L14.844 5.62299C14.9894 5.63533 15.0969 5.764 15.0846 5.90943C15.0722 6.05485 14.9418 6.1615 14.7982 6.15004L10.73 5.79661L8.5968 7.51878C8.29634 7.76027 7.91921 7.86868 7.53504 7.82637C7.15087 7.78407 6.80634 7.59546 6.56668 7.2958L6.48914 7.19885C5.99746 6.58543 6.08382 5.67763 6.6821 5.17614L9.74139 2.71012C9.79426 2.66693 9.8621 2.64666 9.92995 2.65283L15.5516 3.1411L19.3871 1.11267C19.5184 1.0501 19.6761 1.10474 19.7396 1.23606L22.2006 6.31794C22.2543 6.42899 22.2244 6.56208 22.1283 6.63964L18.3624 9.21274C18.3139 9.2524 18.2549 9.27091 18.1967 9.27091L18.1985 9.26827Z" fill="white"/>
</svg>
